X:46
T: Der Bettler
N: A0046
O: Europa, Mitteleuropa, Deutschland
N: Melodie bei Forster V. 1556 No. 8.
R: Romanze, Ballade, Lied
M: 4/2
L: 1/4
K: F
F2 | F4A4 | c4f4 | e4d4 | c4z2
c2 | dcdef2f2 | e4d4 | c6B2 | A8 | z4
F4 | A6G2 | A2B2c2c2 | F4z4 |
A4A4 | B2G2A2F2 | E2F2G2B2 | A4G4 | F6

@@@ Tune index: 46
